X: 34628
T: Road To Ballisadare, The
R: hornpipe
M: 4/4
K: Dmajor
|:F>G|A2- A>B A>G F2|A>df>d A>GF>G|(3ABA B>F A>FD>F|E>DE>F E4|
(3AcA A>B A>GF>G|A>df>d A>GF>G|A>cg>e g>ec>e|1 3ded c>e d2:|2 d2- d>c d2||
|:c>d|e2- e>f g>ec>e|d>cd>e f>dB>d|g2 f2 e2 d2|(3cdc B2 B>AF>G|
A2- A>B A>GF>G|A>df>d A>GF>G|A>ce>f g>ec>e|1 (3ded c>e d2:|2 d2 d2 d2||

